!!!OTL: Die elfjaehrige Markgraefin Maria die ist geritten aus,
!!!ARE: Europa, Mitteleuropa, Deutschland / France, Lothringen
!!!YOR: 2, S. 298
!!    193? aufgezeichnet
!!!SCT: Q1053O
!!!YEM: Copyright 1995, estate of Helmut Schaffrath.
**kern
*ICvox
*Ivox
*M6/4
*k[b-]
*F:
{4cc
4cc
4cc
4dd
=1
2cc
4ff
4ff
4dd
4ee
=2
2ff}
{4cc
4ff
4ff
4gg
=3
4ff
4ee
4dd
2cc
4dd
=4
2cc}
{4cc
4cc
4dd
4cc
=5
4a
4g
4a
4f
4d
4e
=6
2f}
{4a
4cc
4dd
4cc
=7
4a
4g
4a
4f
4d
4e
=8
2f}
==
!!!AGN: geistlich
!! Melodievergleich zu Q0053B, anderes Lied.
!!!ONB: ESAC (Essen Associative Code) Database: BALLADE
!!!AMT: compound duple
!!!AIN: vox
!!!EED: Helmut Schaffrath
!!!EEV: 1.0
*-
